src/assets/img/Footer/phoneicon.svg

<svg width="24" height="25" viewBox="0 0 24 25" fill="none" xmlns="http://www.w3.org/2000/svg">
<g id="Icon">
<path id="Vector (Stroke)" fill-rule="evenodd" clip-rule="evenodd" d="M1.5 5C1.5 3.34315 2.84315 2 4.5 2H5.87163C6.732 2 7.48197 2.58556 7.69064 3.42025L8.79644 7.84343C8.97941 8.5753 8.70594 9.34555 8.10242 9.79818L6.8088 10.7684C6.67447 10.8691 6.64527 11.0167 6.683 11.1197C7.81851 14.2195 10.2805 16.6815 13.3803 17.817C13.4833 17.8547 13.6309 17.8255 13.7316 17.6912L14.7018 16.3976C15.1545 15.7941 15.9247 15.5206 16.6566 15.7036L21.0798 16.8094C21.9144 17.018 22.5 17.768 22.5 18.6284V20C22.5 21.6569 21.1569 23 19.5 23H17.25C8.55151 23 1.5 15.9485 1.5 7.25V5Z" fill="#CAFF33"/>
</g>
</svg>

<svg width="24" height="25" fill="none" xmlns="http://www.w3.org/2000/svg"><path fill-rule="evenodd" clip-rule="evenodd" d="M1.5 5a3 3 0 0 1 3-3h1.372c.86 0 1.61.586 1.819 1.42l1.105 4.423a1.875 1.875 0 0 1-.694 1.955l-1.293.97c-.135.101-.164.249-.126.352a11.285 11.285 0 0 0 6.697 6.697c.103.038.25.009.352-.126l.97-1.293a1.875 1.875 0 0 1 1.955-.694l4.423 1.105c.834.209 1.42.959 1.42 1.82V20a3 3 0 0 1-3 3h-2.25C8.552 23 1.5 15.948 1.5 7.25V5Z" fill="#CAFF33"/></svg>
